Source/HTML/PIC/Tera.svg

<?xml version="1.0" encoding="utf-8"?>
<svg width="32" height="32" viewBox="0 0 32 32" fill="none" xmlns="http://www.w3.org/2000/svg">
<path d="M29.9728 24.4597C29.9728 24.4587 29.9723 24.4577 29.9718 24.4566C29.9707 24.4535 29.9697 24.4504 29.9681 24.4479C29.9661 24.4427 29.9635 24.4375 29.9604 24.4323C29.9594 24.4292 29.9579 24.4261 29.9563 24.423C29.9522 24.4153 29.9481 24.408 29.9435 24.4008L15.3327 0.205778C15.3317 0.204227 15.3306 0.202158 15.3296 0.200607L15.3137 0.173722C15.2453 0.0687645 15.1275 0 14.9944 0C14.8622 0 14.746 0.0672141 14.6776 0.169586C14.6704 0.179927 14.6637 0.190783 14.6576 0.202158C13.6755 1.83184 12.6878 3.45843 11.6939 5.08191C11.5946 5.22357 11.5417 5.39264 11.5417 5.56533C11.5417 5.73854 11.5946 5.90709 11.6939 6.04875C13.0045 8.20012 14.3079 10.3567 15.6186 12.508C15.7255 12.6616 15.7826 12.8441 15.7826 13.0318C15.7826 13.219 15.7255 13.4015 15.6186 13.555C13.4652 17.1107 11.1807 20.8545 9.01708 24.4303C8.98777 24.4846 8.97131 24.5471 8.97131 24.6133C8.97131 24.8258 9.14202 24.9975 9.35334 24.9975H15.3846L15.3841 24.998H15.6746C15.7476 24.998 15.8155 24.9773 15.8736 24.9416C15.9317 24.9059 15.979 24.8553 16.0114 24.7953L16.0124 24.7948L16.2299 24.4298L19.1437 19.594C19.1443 19.5934 19.1437 19.5934 19.1437 19.5934C19.209 19.4735 19.335 19.3928 19.48 19.3928C19.6116 19.3928 19.7279 19.46 19.7968 19.5619C19.7993 19.566 19.8019 19.5702 19.8045 19.5743L19.807 19.5784L22.708 24.3424L22.9738 24.7844C23.0386 24.9039 23.1646 24.985 23.3101 24.985H23.487C23.5163 24.9866 23.5456 24.9871 23.5749 24.9856H29.618C29.8288 24.9856 30 24.8139 30 24.6014C30 24.5513 29.9908 24.5032 29.9728 24.4597Z" fill="#445368" />
<path d="M13.1433 13.7884C13.2133 13.6721 13.2832 13.5563 13.3536 13.4394C13.4405 13.3133 13.4873 13.1639 13.4873 13.0108C13.4873 12.8578 13.4405 12.7073 13.3536 12.5822L12.0553 10.467L10.5704 8.0468C10.503 7.93719 10.3822 7.86377 10.2449 7.86377C10.0994 7.86377 9.97242 7.94443 9.90763 8.06438L0.0457623 24.4321C0.0164543 24.4863 0 24.5489 0 24.6151C0 24.8276 0.170703 24.9992 0.382028 24.9992H3.19971V24.9987H5.77983L5.77778 24.9998H5.93872L6.17318 24.9992H6.17421C6.31869 24.9992 6.44467 24.9181 6.50894 24.7986C6.50894 24.7986 6.50945 24.7986 6.50945 24.7981L6.73106 24.429C6.74134 24.415 6.7506 24.4005 6.75883 24.3855C6.75883 24.3855 6.75934 24.3855 6.75934 24.3845L6.99998 23.9848C9.07005 20.5466 11.0429 17.2644 13.1104 13.8422C13.1223 13.8246 13.1331 13.8065 13.1433 13.7884Z" fill="#445368" />
</svg>

<svg width="32" height="32" fill="none" xmlns="http://www.w3.org/2000/svg"><path d="M29.973 24.46l-.001-.003-.004-.01a.102.102 0 00-.008-.015.32.32 0 00-.017-.032L15.334.207 15.33.2l-.016-.027a.38.38 0 00-.656.028 816.62 816.62 0 01-2.964 4.88.842.842 0 000 .967c1.31 2.151 2.614 4.308 3.925 6.459a.916.916 0 010 1.047c-2.154 3.556-4.438 7.3-6.602 10.875a.384.384 0 00.336.567h6.032v.001h.29a.378.378 0 00.336-.203h.001l.218-.365 2.914-4.836a.382.382 0 01.66-.02l.003.004 2.901 4.764.266.442c.065.12.19.201.336.201h.177c.03.002.059.002.088 0h6.043a.383.383 0 00.355-.525z" fill="#445368"/><path d="M13.143 13.788l.21-.349a.755.755 0 000-.857l-1.298-2.115-1.485-2.42a.382.382 0 00-.662.017L.046 24.432A.384.384 0 00.382 25H5.78h-.002.396a.38.38 0 00.335-.2l.222-.37a.392.392 0 00.028-.043v-.002l.241-.4c2.07-3.437 4.043-6.72 6.11-10.142a.775.775 0 00.033-.054z" fill="#445368"/></svg>
